svgs/thin/diagram-lean-canvas.svg

<svg xmlns="http://www.w3.org/2000/svg" viewBox="0 0 640 512"><!-- Font Awesome Pro 6.0.0-alpha2 by @fontawesome - https://fontawesome.com License - https://fontawesome.com/license (Commercial License) --><path d="M576 32H64C28.652 32 0 60.654 0 96V416C0 451.346 28.652 480 64 480H576C611.348 480 640 451.346 640 416V96C640 60.654 611.348 32 576 32ZM392 48H488V192H392V48ZM392 208H488V344H392V208ZM264 48H376V344H264V48ZM152 48H248V192H152V48ZM152 208H248V344H152V208ZM16 96C16 69.533 37.531 48 64 48H136V344H16V96ZM312 464H64C37.531 464 16 442.467 16 416V360H312V464ZM624 416C624 442.467 602.469 464 576 464H328V360H624V416ZM624 344H504V48H576C602.469 48 624 69.533 624 96V344Z"/></svg>

<svg xmlns="http://www.w3.org/2000/svg" viewBox="0 0 640 512"><!--! Font Awesome Pro 6.0.0-alpha3 by @fontawesome - https://fontawesome.com License - https://fontawesome.com/license (Commercial License) --><path d="M576 32H64C28.65 32 0 60.65 0 96v320c0 35.35 28.65 64 64 64h512c35.35 0 64-28.65 64-64V96C640 60.65 611.3 32 576 32zM392 48h96V192h-96V48zM392 208h96v136h-96V208zM264 48h112v296h-112V48zM152 48h96V192h-96V48zM152 208h96v136h-96V208zM16 96c0-26.47 21.53-48 48-48h72v296H16V96zM312 464H64c-26.47 0-48-21.53-48-48v-56h296V464zM624 416c0 26.47-21.53 48-48 48h-248v-104h296V416zM624 344h-120V48H576c26.47 0 48 21.53 48 48V344z"/></svg>
